Numix-GalliumOS/64/categories/applications-haskell.svg

<?xml version="1.0" encoding="UTF-8" standalone="no"?>
<svg
   xmlns:dc="http://purl.org/dc/elements/1.1/"
   xmlns:cc="http://creativecommons.org/ns#"
   xmlns:rdf="http://www.w3.org/1999/02/22-rdf-syntax-ns#"
   xmlns:svg="http://www.w3.org/2000/svg"
   xmlns="http://www.w3.org/2000/svg"
   xmlns:sodipodi="http://sodipodi.sourceforge.net/DTD/sodipodi-0.dtd"
   xmlns:inkscape="http://www.inkscape.org/namespaces/inkscape"
   width="64"
   height="64"
   viewBox="0 0 64 64"
   id="svg2"
   version="1.1"
   inkscape:version="0.91 r"
   sodipodi:docname="applications-haskell.svg">
  <metadata
     id="metadata38">
    <rdf:RDF>
      <cc:Work
         rdf:about="">
        <dc:format>image/svg+xml</dc:format>
        <dc:type
           rdf:resource="http://purl.org/dc/dcmitype/StillImage" />
        <dc:title />
      </cc:Work>
    </rdf:RDF>
  </metadata>
  <sodipodi:namedview
     pagecolor="#ffffff"
     bordercolor="#666666"
     borderopacity="1"
     objecttolerance="10"
     gridtolerance="10"
     guidetolerance="10"
     inkscape:pageopacity="0"
     inkscape:pageshadow="2"
     inkscape:window-width="1920"
     inkscape:window-height="1056"
     id="namedview36"
     showgrid="true"
     inkscape:zoom="10.429825"
     inkscape:cx="12.498315"
     inkscape:cy="24.301975"
     inkscape:window-x="0"
     inkscape:window-y="24"
     inkscape:window-maximized="1"
     inkscape:current-layer="svg2">
    <inkscape:grid
       type="xygrid"
       id="grid4166" />
  </sodipodi:namedview>
  <defs
     id="defs4" />
  <path
     style="clip-rule:nonzero;fill:#4eb09d"
     d="M 6.498,50 18.497999,32 6.498,14 15.493973,14 27.493974,32 15.493973,50 Z"
     id="path22"
     inkscape:connector-curvature="0" />
  <path
     style="clip-rule:nonzero;fill:#4eb09d"
     d="M 18.497999,50 30.498,32 18.497999,14 27.493974,14 51.502028,50 42.498,50 35.000012,38.757048 27.493974,50 Z"
     id="path26"
     inkscape:connector-curvature="0" />
  <path
     style="clip-rule:nonzero;fill:#4eb09d"
     d="m 47.492614,39.499948 -3.996,-5.999974 14.5034,0 0,6.000026 z"
     id="path30"
     inkscape:connector-curvature="0"
     sodipodi:nodetypes="ccccc" />
  <path
     style="clip-rule:nonzero;fill:#4eb09d"
     d="m 41.498614,30.5 -3.996,-6 20.4974,0 0,6 z"
     id="path34"
     inkscape:connector-curvature="0"
     sodipodi:nodetypes="ccccc" />
</svg>

<svg xmlns="http://www.w3.org/2000/svg" viewBox="0 0 64 64">
 <path d="m 6.498 50 12 -18 -12 -18 8.996 0 12 18 -12 18" style="fill:#4eb09d"/>
 <path d="m 18.498 50 12 -18 -12 -18 8.996 0 24.01 36 -9 0 -7.498 -11.243 -7.506 11.243" style="fill:#4eb09d"/>
 <path d="m 47.49 39.5 -3.996 -6 14.503 0 0 6 z" style="fill:#4eb09d"/>
 <path d="m 41.499 30.5 -3.996 -6 20.497 0 0 6 z" style="fill:#4eb09d"/>
</svg>
